X: 0
T: Sing We Merry Christmas
Z: C. T. Bowen
Z: Copyright © 2002 by Douglas D. Anderson
Z: Released To The Public Domain
L: 1/4
M: 4/4
Q: 1/4=120
V: P1 name="Staff"
%%MIDI program 1 19
K: A
[V: P1]  A A A B | A2 G2 | B c d e | c4 | d c B A | B2 c2 | B A A G | G4 | A G F ^E | F2 C2 | D D C ^B, | C4 | A A B c | d2 c2 | B A A G | A4|]
w: Sing we mer- ry Christ- mas Christ- mas blithe and free, Time of ho- ly glad- ness, Mirth and min- strel sy. Hark! The mer- ry Church bells Ring- ing joy- ous ly; Hail- ing with sweet mu- sic Christ’s na- tiv i ty.

